symbols/web/zoom_out_map/materialsymbolsrounded/zoom_out_map_wght600gradN25_24px.svg

<svg xmlns="http://www.w3.org/2000/svg" height="24" width="24"><path d="M4 9.425q-.5 0-.875-.375t-.375-.9V4q0-.525.362-.888.363-.362.888-.362h4.15q.525 0 .9.375T9.425 4q0 .525-.375.9t-.9.375H7.025L8.95 7.2q.35.35.35.85t-.375.875q-.375.35-.887.35-.513 0-.863-.35l-1.9-1.9V8.15q0 .525-.375.9t-.9.375Zm11.075-.5q-.35-.375-.35-.888 0-.512.35-.862l1.9-1.9H15.85q-.525 0-.9-.375t-.375-.9q0-.5.375-.875t.9-.375H20q.525 0 .888.362.362.363.362.888v4.15q0 .525-.375.9T20 9.425q-.525 0-.9-.375t-.375-.9V7.025L16.8 8.95q-.35.35-.85.35t-.875-.375Zm.775 12.325q-.525 0-.9-.375T14.575 20q0-.525.375-.9t.9-.375h1.125L15.05 16.8q-.35-.35-.35-.85t.375-.875q.375-.35.888-.35.512 0 .862.35l1.9 1.9V15.85q0-.525.375-.9t.9-.375q.5 0 .875.375t.375.9V20q0 .525-.362.887-.363.363-.888.363ZM4 21.25q-.525 0-.888-.363-.362-.362-.362-.887v-4.15q0-.525.375-.9T4 14.575q.525 0 .9.375t.375.9v1.125L7.2 15.05q.35-.35.85-.35t.875.375q.35.375.35.888 0 .512-.35.862l-1.9 1.9H8.15q.525 0 .9.375t.375.9q0 .5-.375.875t-.9.375Z"/></svg>

<svg xmlns="http://www.w3.org/2000/svg" height="24" width="24"><path d="M4 9.425Q3.5 9.425 3.125 9.05Q2.75 8.675 2.75 8.15V4Q2.75 3.475 3.112 3.112Q3.475 2.75 4 2.75H8.15Q8.675 2.75 9.05 3.125Q9.425 3.5 9.425 4Q9.425 4.525 9.05 4.9Q8.675 5.275 8.15 5.275H7.025L8.95 7.2Q9.3 7.55 9.3 8.05Q9.3 8.55 8.925 8.925Q8.55 9.275 8.038 9.275Q7.525 9.275 7.175 8.925L5.275 7.025V8.15Q5.275 8.675 4.9 9.05Q4.525 9.425 4 9.425ZM15.075 8.925Q14.725 8.55 14.725 8.037Q14.725 7.525 15.075 7.175L16.975 5.275H15.85Q15.325 5.275 14.95 4.9Q14.575 4.525 14.575 4Q14.575 3.5 14.95 3.125Q15.325 2.75 15.85 2.75H20Q20.525 2.75 20.888 3.112Q21.25 3.475 21.25 4V8.15Q21.25 8.675 20.875 9.05Q20.5 9.425 20 9.425Q19.475 9.425 19.1 9.05Q18.725 8.675 18.725 8.15V7.025L16.8 8.95Q16.45 9.3 15.95 9.3Q15.45 9.3 15.075 8.925ZM15.85 21.25Q15.325 21.25 14.95 20.875Q14.575 20.5 14.575 20Q14.575 19.475 14.95 19.1Q15.325 18.725 15.85 18.725H16.975L15.05 16.8Q14.7 16.45 14.7 15.95Q14.7 15.45 15.075 15.075Q15.45 14.725 15.963 14.725Q16.475 14.725 16.825 15.075L18.725 16.975V15.85Q18.725 15.325 19.1 14.95Q19.475 14.575 20 14.575Q20.5 14.575 20.875 14.95Q21.25 15.325 21.25 15.85V20Q21.25 20.525 20.888 20.887Q20.525 21.25 20 21.25ZM4 21.25Q3.475 21.25 3.112 20.887Q2.75 20.525 2.75 20V15.85Q2.75 15.325 3.125 14.95Q3.5 14.575 4 14.575Q4.525 14.575 4.9 14.95Q5.275 15.325 5.275 15.85V16.975L7.2 15.05Q7.55 14.7 8.05 14.7Q8.55 14.7 8.925 15.075Q9.275 15.45 9.275 15.963Q9.275 16.475 8.925 16.825L7.025 18.725H8.15Q8.675 18.725 9.05 19.1Q9.425 19.475 9.425 20Q9.425 20.5 9.05 20.875Q8.675 21.25 8.15 21.25Z"/></svg>
